X: 120
T:Silver Spire
R:Reel
M:C|
L:1/8
Q:1/2=112
K:D
|:D2 FE DFAB|dcde fdAF|~G2BG FADF|(3GFE FD ~E3F|
D2 FE DFAB|dcde fdAF|GABG FADF|EA,CE D3z:|
:A,B,CD EFGE|(3FED EF GABc|dcBA Bcde|fdgf e3A|
defd ceAc|dcdB AFDF|GABG FADF|EA,CE D3z:|
